X:118
T:Wild Irishman, The
M:6/8
L:1/8
B:Thompson's Compleat Collection of 200 Favourite Country Dances, vol. 3 (London, 1773)
Z:Transcribed and edited by Flynn Titford-Mock, 2007
Z:abc's:AK/Fiddler's Companion
K:E
e2f g2e | a2f g2e | e2f gfe | d3 f3 | e2f g2e | a2f g2d | egb afd | e3 E3 :|
|: bge c3 | Bdf fdB | Bdf fdB | f2g a3 | bge c3 | Bdf fdB | egb afd | e3 E3 :|

